Adwaita++/actions/symbolic/pane-show-symbolic.svg

<svg height="16" width="16" xmlns="http://www.w3.org/2000/svg">
  <g fill="#474747">
    <path d="m9 5-4 3 4 3v-2h4v-2h-4z"/>
    <path d="m2 15h10v-2h-8v-10h8v-2h-10z"/>
  </g>
</svg>

<svg xmlns="http://www.w3.org/2000/svg" width="16" height="16" version="1.1">
 <path style="fill:#474747" d="M 9,5 5,8 9,11 V 9 H 13 V 7 H 9 Z"/>
 <path style="fill:#474747" d="M 2,15 H 12 V 13 H 4 V 3 3 H 12 V 1 H 2 Z"/>
</svg>
